X: 33080
T: Primrose Lasses, The
R: reel
M: 4/4
K: Dmajor
|:D3G FAAF|G2 BG FABc|dABG FADf|gefd edAG|
FAGE DFAF|G2 BG FABc|dgfa ecdB|AFGE FDDA|
D3G FAAF|G2 BG FABc|dABG FADf|gefd edAG|
FAGE DFAF|G2 BG FABc|dg (3.f.a.f efdB|AFGE FDDg||
|:faaf afdf|gefd edBc|dABG FADf|.ge.fd edBg|
faaf afdf|gefd edBc|dfea ecdB|AFGE FDDg|
faaf afdf|(3gfe fd edBf|geBg fadf|gefd edBg|
(3.f.g.f af bfaf|gefd edBc|dgfa ecdB|AFGE FDDA||
|:D3G FADF|GBDE FADA|dABG FADf|gefd edAG|
FAGE DFAF|G2 BG FABc|dgfa ecdB|AFGE FDDg:|
|:fa a2 afdf|gefd edBf|gebg fadf|gefd edBg|
(3.f.g.f af bfaf|gbfg edBc|dgfa ecdB|AFGE FDDA||

